icons/svg/calligraphy-pen.svg

<svg width="24" height="24" viewBox="0 0 24 24" fill="none" xmlns="http://www.w3.org/2000/svg">
<path d="M19.1599 2.75V3.79851C19.1599 4.98555 19.1599 5.57907 18.9289 6.03246C18.7257 6.43127 18.4014 6.75552 18.0026 6.95872C17.5492 7.18974 16.9557 7.18974 15.7687 7.18974H15.3463M4.84009 2.75V3.79851C4.84009 4.98555 4.84009 5.57907 5.0711 6.03246C5.27431 6.43127 5.59855 6.75552 5.99736 6.95872C6.45075 7.18974 7.04427 7.18974 8.23131 7.18974H8.65368M8.65368 7.18974L6.3187 11.4705C5.95174 12.1433 5.76826 12.4797 5.70949 12.8323C5.65752 13.1441 5.67596 13.4636 5.76346 13.7674C5.86242 14.111 6.08339 14.424 6.52532 15.0501L9.22946 18.8809C10.1625 20.2027 10.629 20.8635 11.209 21.0969C11.7166 21.301 12.2834 21.301 12.791 21.0969C13.371 20.8635 13.8375 20.2027 14.7705 18.8809L17.4746 15.0501C17.9166 14.424 18.1375 14.111 18.2365 13.7674C18.324 13.4636 18.3424 13.1441 18.2905 12.8323C18.2317 12.4797 18.0482 12.1433 17.6813 11.4705L15.3463 7.18974M8.65368 7.18974H15.3463" stroke="currentColor" stroke-width="1.5" stroke-linecap="round" stroke-linejoin="round"/>
<path d="M12 13.3246V20.8469" stroke="currentColor" stroke-width="1.5" stroke-linecap="round" stroke-linejoin="round"/>
<circle cx="11.9999" cy="13.3246" r="1.67315" fill="currentColor"/>
</svg>

<svg xmlns="http://www.w3.org/2000/svg" width="24" height="24" fill="none" viewBox="0 0 24 24"><path stroke="currentColor" stroke-linecap="round" stroke-linejoin="round" stroke-width="1.5" d="M19.16 2.75v1.049c0 1.187 0 1.78-.231 2.233a2.12 2.12 0 0 1-.926.927c-.454.23-1.047.23-2.234.23h-.423M4.84 2.75v1.049c0 1.187 0 1.78.231 2.233.203.4.528.724.926.927.454.23 1.047.23 2.234.23h.423m0 0L6.319 11.47c-.367.673-.55 1.01-.61 1.362a2.1 2.1 0 0 0 .054.935c.1.344.32.657.762 1.283l2.704 3.83c.934 1.323 1.4 1.983 1.98 2.217a2.12 2.12 0 0 0 1.582 0c.58-.234 1.047-.894 1.98-2.216l2.704-3.83c.442-.627.662-.94.761-1.284a2.1 2.1 0 0 0 .055-.935c-.06-.352-.243-.689-.61-1.362l-2.335-4.28m-6.692 0h6.692M12 13.325v7.522"/><circle cx="12" cy="13.325" r="1.673" fill="currentColor"/></svg>
